X: 550
T: Chuan menzi
L: 1/8
M: 2/4
K: A
B2e e [I:setbarnb 1]| 
d cB2 | 
B2e e | 
d cB2 | 
e> f e B | 
c B A G | 
F E F G | 
E4 | 
B2c B | 
c A G F | 
E2e2 | 
d cB2 | 
e f e B | 
c B A G | 
F E F G | 
E4 |]

@@@ Tune index: 9424
